24x24/apps/protege.svg

<svg xmlns="http://www.w3.org/2000/svg" width="24" height="24" version="1">
 <path style="opacity:0.2" d="m 9.6108248,15.829523 c -2.1478587,-2.147859 -2.1478587,-5.630226 0,-7.7780844 C 11.758684,5.9035798 19.483643,1.660988 21.631502,3.8088468 23.779361,5.9567057 19.536768,13.681664 17.38891,15.829523 c -2.147859,2.147859 -5.630226,2.147859 -7.7780852,0 z"/>
 <path style="fill:#25509a" d="m 9.6108248,15.329529 c -2.1478587,-2.147859 -2.1478587,-5.6302259 0,-7.7780846 C 11.758684,5.4035857 19.483643,1.1609939 21.631502,3.3088527 23.779361,5.4567115 19.536768,13.18167 17.38891,15.329529 c -2.147859,2.147859 -5.630226,2.147859 -7.7780852,0 z"/>
 <path style="opacity:0.1;fill:#f4f4f7" d="M 19.908973,2.7184745 C 16.783179,2.678055 11.356376,5.8062915 9.6112403,7.5514269 8.4736749,8.6889922 7.9442425,10.200329 8.0116497,11.69005 8.0716191,10.36716 8.6010655,9.061596 9.6112403,8.0514211 11.759099,5.9035623 19.483751,1.6614235 21.63161,3.8092823 22.00461,4.1822824 22.181645,4.7256737 22.213634,5.376647 22.261814,4.5014337 22.096847,3.774526 21.63161,3.309288 21.228886,2.9065645 20.63031,2.7278021 19.908973,2.7184745 Z"/>
 <path style="opacity:0.2" d="m 15.974713,14.415208 c -1.38357,1.38357 -3.566121,1.38357 -4.949691,0 -1.3835695,-1.38357 -1.3835695,-3.566121 0,-4.9496902 0.691785,-0.6917845 3.142859,-2.3450235 5.386103,-3.3090004 1.121622,-0.4819884 2.222662,-0.8149446 2.980311,-0.9073511 0.467647,-0.057037 0.698932,-0.012178 0.794104,0.00552 0.0177,0.095172 0.06256,0.3264573 0.0055,0.7941049 -0.09238,0.7576522 -0.425338,1.8586921 -0.907326,2.9803146 -0.963977,2.2432442 -2.617216,4.6943172 -3.309001,5.3861022 z"/>
 <path style="fill:#f4f4f7" d="m 15.974713,13.915332 c -1.38357,1.38357 -3.566121,1.38357 -4.949691,0 -1.3835695,-1.38357 -1.3835695,-3.56612 0,-4.9496904 0.691785,-0.6917846 3.142859,-2.3450235 5.386103,-3.3090004 1.121622,-0.4819885 2.222662,-0.8149447 2.980311,-0.9073511 0.467647,-0.057037 0.698932,-0.012178 0.794104,0.00552 0.0177,0.095172 0.06256,0.3264571 0.0055,0.7941049 -0.09241,0.7576483 -0.425363,1.8586881 -0.907351,2.9803107 -0.963977,2.2432433 -2.617216,4.6943173 -3.309001,5.3861023 z"/>
 <path style="opacity:0.2" d="m 9.6018942,8.1088257 c -2.1478586,2.1478583 -2.1478592,5.6302263 0,7.7780843 2.1478588,2.147859 9.8728178,6.39045 12.0206768,4.242592 2.147858,-2.147859 -2.094733,-9.872818 -4.242592,-12.020677 -2.147859,-2.1478583 -5.630226,-2.1478584 -7.7780848,7e-7 z"/>
 <path style="fill:#9e51c3" d="m 9.6018942,7.6088257 c -2.1478586,2.1478587 -2.1478592,5.6302263 0,7.7780843 2.1478588,2.147859 9.8728178,6.39045 12.0206768,4.242592 2.147858,-2.147859 -2.094733,-9.8728185 -4.242592,-12.020677 -2.147859,-2.1478583 -5.630226,-2.1478584 -7.7780848,7e-7 z"/>
 <path style="opacity:0.2" d="m 15.965781,9.5230223 c -1.383569,-1.3835694 -3.56612,-1.3835694 -4.94969,5e-7 -1.383569,1.3835692 -1.3835699,3.5661202 0,4.9496902 0.691785,0.691785 3.142859,2.345023 5.386104,3.309001 1.121622,0.481988 2.222661,0.814944 2.98031,0.90735 0.467648,0.05704 0.698931,0.01218 0.794105,-0.0055 0.0177,-0.09517 0.06256,-0.326456 0.0055,-0.794105 C 20.0897,17.131812 19.756752,16.03077 19.27476,14.909148 18.310783,12.665905 16.657544,10.214832 15.965758,9.5230463 Z"/>
 <path style="fill:#f4f4f7" d="m 15.965781,9.0230223 c -1.383569,-1.3835694 -3.56612,-1.3835694 -4.94969,5e-7 -1.383569,1.3835692 -1.3835699,3.5661202 0,4.9496902 0.691785,0.691785 3.142859,2.345023 5.386104,3.309001 1.121622,0.481988 2.222661,0.814944 2.98031,0.90735 0.467648,0.05704 0.698931,0.01218 0.794105,-0.0055 0.0177,-0.09517 0.06256,-0.326456 0.0055,-0.794105 C 20.0897,16.631812 19.756752,15.53077 19.27476,14.409148 18.310783,12.165905 16.657544,9.7148319 15.965758,9.0230463 Z"/>
 <path style="opacity:0.2" d="m 18.999804,11.999617 c 0,3.037531 -2.462405,5.499937 -5.499936,5.499937 C 10.462337,17.499554 2,15.037148 2,11.999617 2,8.9620866 10.462337,6.499681 13.499868,6.499681 c 3.037531,0 5.499936,2.4624056 5.499936,5.499936 z"/>
 <path style="fill:#d97f33" d="m 18.999804,11.499623 c 0,3.037531 -2.462405,5.499937 -5.499936,5.499937 C 10.462337,16.99956 2,14.537154 2,11.499623 2,8.4620924 10.462337,5.9996867 13.499868,5.9996867 c 3.037531,0 5.499936,2.4624057 5.499936,5.4999363 z"/>
 <path style="opacity:0.2" d="m 13.499868,8.4995399 c 1.956662,0 3.499959,1.5432971 3.499959,3.4999591 0,1.956663 -1.543297,3.49996 -3.499959,3.49996 -0.978332,0 -3.8805193,-0.564155 -6.1483672,-1.468733 C 6.2175769,13.578437 5.2035886,13.035319 4.6025091,12.564922 4.231501,12.274577 4.0996777,12.079314 4.0448983,11.999499 4.0996777,11.919685 4.231501,11.724422 4.6025091,11.434076 5.2035886,10.963679 6.2175769,10.420562 7.3515008,9.968273 9.6193487,9.0636944 12.521536,8.4995399 13.499868,8.4995399 Z"/>
 <path style="fill:#f4f4f7" d="m 13.499868,7.9996637 c 1.956662,0 3.499959,1.5432967 3.499959,3.4999593 0,1.956663 -1.543297,3.49996 -3.499959,3.49996 -0.978332,0 -3.8805193,-0.564155 -6.1483672,-1.468733 C 6.2175769,13.07856 5.2035886,12.535443 4.6025091,12.065046 4.231501,11.7747 4.0996777,11.579438 4.0448983,11.499623 4.0996777,11.419808 4.231501,11.224546 4.6025091,10.9342 5.2035886,10.463803 6.2175769,9.9206861 7.3515008,9.4683968 9.6193487,8.5638182 12.521536,7.9996637 13.499868,7.9996637 Z"/>
 <path style="opacity:0.1;fill:#f4f4f7" d="M 13.499868,5.9996867 C 10.462337,5.9996867 2,8.4620924 2,11.499623 c 0,0.08379 0.0089,0.16712 0.021484,0.249997 0.4437214,-2.9214869 8.524645,-5.249939 11.478384,-5.249939 2.953153,0 5.355654,2.3292666 5.487241,5.249939 0.0038,-0.08345 0.0127,-0.16562 0.0127,-0.249997 0,-3.0375306 -2.462405,-5.4999363 -5.499936,-5.4999363 z"/>
</svg>

<svg xmlns="http://www.w3.org/2000/svg" width="24" height="24" version="1"><path style="opacity:.2" d="M9.61 15.83a5.5 5.5 0 0 1 0-7.779c2.149-2.147 9.874-6.39 12.022-4.242 2.147 2.148-2.095 9.873-4.243 12.02a5.5 5.5 0 0 1-7.778 0z"/><path style="fill:#25509a" d="M9.61 15.33a5.5 5.5 0 0 1 0-7.779c2.149-2.147 9.874-6.39 12.022-4.242 2.147 2.148-2.095 9.873-4.243 12.02a5.5 5.5 0 0 1-7.778 0z"/><path style="opacity:.1;fill:#f4f4f7" d="M19.909 2.718c-3.126-.04-8.553 3.088-10.298 4.833a5.48 5.48 0 0 0-1.6 4.139 5.474 5.474 0 0 1 1.6-3.639c2.148-2.147 9.873-6.39 12.02-4.242.374.373.55.917.583 1.568.048-.876-.117-1.602-.582-2.068-.403-.402-1.002-.581-1.723-.59z"/><path style="opacity:.2" d="M15.975 14.415a3.47 3.47 0 0 1-4.95 0 3.47 3.47 0 0 1 0-4.95c.692-.691 3.143-2.345 5.386-3.308 1.122-.482 2.223-.815 2.98-.908.468-.057.7-.012.795.006.017.095.062.326.005.794-.092.757-.425 1.858-.907 2.98-.964 2.243-2.618 4.694-3.31 5.386z"/><path style="fill:#f4f4f7" d="M15.975 13.915a3.47 3.47 0 0 1-4.95 0 3.47 3.47 0 0 1 0-4.95c.692-.691 3.143-2.344 5.386-3.308 1.122-.482 2.223-.815 2.98-.908.468-.057.7-.012.795.006.017.095.062.326.005.794-.092.758-.425 1.859-.907 2.98-.964 2.243-2.618 4.695-3.31 5.386z"/><path style="opacity:.2" d="M9.602 8.109a5.5 5.5 0 0 0 0 7.778c2.148 2.148 9.873 6.39 12.02 4.243 2.148-2.148-2.094-9.873-4.242-12.021a5.5 5.5 0 0 0-7.778 0z"/><path style="fill:#9e51c3" d="M9.602 7.609a5.5 5.5 0 0 0 0 7.778c2.148 2.148 9.873 6.39 12.02 4.243 2.148-2.148-2.094-9.873-4.242-12.021a5.5 5.5 0 0 0-7.778 0z"/><path style="opacity:.2" d="M15.966 9.523a3.47 3.47 0 0 0-4.95 0 3.47 3.47 0 0 0 0 4.95c.692.691 3.143 2.345 5.386 3.309 1.122.482 2.223.815 2.98.907.468.057.7.012.795-.005.017-.096.062-.327.005-.795-.092-.757-.425-1.858-.907-2.98-.964-2.243-2.617-4.694-3.31-5.386z"/><path style="fill:#f4f4f7" d="M15.966 9.023a3.47 3.47 0 0 0-4.95 0 3.47 3.47 0 0 0 0 4.95c.692.691 3.143 2.345 5.386 3.309 1.122.482 2.223.815 2.98.907.468.057.7.012.795-.005.017-.096.062-.327.005-.795-.092-.757-.425-1.858-.907-2.98-.964-2.243-2.617-4.694-3.31-5.386z"/><path style="opacity:.2" d="M19 12a5.5 5.5 0 0 1-5.5 5.5C10.462 17.5 2 15.037 2 12c0-3.038 8.462-5.5 11.5-5.5A5.5 5.5 0 0 1 19 12z"/><path style="fill:#d97f33" d="M19 11.5a5.5 5.5 0 0 1-5.5 5.5C10.462 17 2 14.537 2 11.5 2 8.462 10.462 6 13.5 6a5.5 5.5 0 0 1 5.5 5.5z"/><path style="opacity:.2" d="M13.5 8.5A3.47 3.47 0 0 1 17 12a3.47 3.47 0 0 1-3.5 3.5c-.978 0-3.88-.565-6.148-1.47-1.134-.452-2.148-.995-2.75-1.465-.37-.29-.502-.486-.557-.566.055-.08.187-.275.558-.565.6-.47 1.615-1.013 2.749-1.466C9.619 9.064 12.522 8.5 13.5 8.5z"/><path style="fill:#f4f4f7" d="M13.5 8a3.47 3.47 0 0 1 3.5 3.5 3.47 3.47 0 0 1-3.5 3.5c-.978 0-3.88-.565-6.148-1.47-1.134-.451-2.148-.995-2.75-1.465-.37-.29-.502-.486-.557-.565.055-.08.187-.275.558-.566.6-.47 1.615-1.013 2.749-1.466C9.619 8.564 12.522 8 13.5 8z"/><path style="opacity:.1;fill:#f4f4f7" d="M13.5 6C10.462 6 2 8.462 2 11.5c0 .083.009.167.021.25C2.465 8.828 10.546 6.5 13.5 6.5a5.495 5.495 0 0 1 5.487 5.25c.004-.084.013-.166.013-.25A5.5 5.5 0 0 0 13.5 6z"/></svg>
